img/icon/menu-icon/phone-call.svg

<svg width="24" height="24" viewBox="0 0 24 24" fill="none" xmlns="http://www.w3.org/2000/svg">
<path d="M18.965 16.61L17.792 15.437C17.206 14.851 16.256 14.851 15.671 15.437L14.749 16.359C14.543 16.565 14.231 16.634 13.965 16.517C12.629 15.932 11.309 15.045 10.132 13.868C8.96002 12.696 8.07602 11.382 7.49002 10.051C7.36802 9.77597 7.43902 9.45297 7.65202 9.23997L8.47802 8.41397C9.14902 7.74297 9.14902 6.79397 8.56302 6.20797L7.39002 5.03497C6.60902 4.25397 5.34302 4.25397 4.56202 5.03497L3.91002 5.68597C3.16902 6.42697 2.86002 7.49597 3.06002 8.55597C3.55402 11.169 5.07202 14.03 7.52102 16.479C9.97002 18.928 12.831 20.446 15.444 20.94C16.504 21.14 17.573 20.831 18.314 20.09L18.965 19.439C19.746 18.658 19.746 17.392 18.965 16.61V16.61Z" stroke="#848E9F" stroke-width="1.5" stroke-linecap="round" stroke-linejoin="round"/>
<path d="M13 6.99109C14.031 6.97709 15.067 7.35909 15.854 8.14609" stroke="#848E9F" stroke-width="1.5" stroke-linecap="round" stroke-linejoin="round"/>
<path d="M18.682 5.31787C17.113 3.74887 15.056 2.96387 13 2.96387" stroke="#848E9F" stroke-width="1.5" stroke-linecap="round" stroke-linejoin="round"/>
<path d="M17.009 11C17.023 9.969 16.641 8.933 15.854 8.146" stroke="#848E9F" stroke-width="1.5" stroke-linecap="round" stroke-linejoin="round"/>
<path d="M18.682 5.31787C20.251 6.88687 21.036 8.94387 21.036 10.9999" stroke="#848E9F" stroke-width="1.5" stroke-linecap="round" stroke-linejoin="round"/>
</svg>

<svg width="24" height="24" fill="none" xmlns="http://www.w3.org/2000/svg"><path d="M18.965 16.61l-1.173-1.173a1.5 1.5 0 0 0-2.121 0l-.922.922a.71.71 0 0 1-.784.158c-1.336-.585-2.656-1.472-3.833-2.649a12.645 12.645 0 0 1-2.642-3.817.733.733 0 0 1 .162-.811l.826-.826c.671-.671.671-1.62.085-2.206L7.39 5.035a2 2 0 0 0-2.828 0l-.652.651c-.741.741-1.05 1.81-.85 2.87.494 2.613 2.012 5.474 4.461 7.923 2.449 2.449 5.31 3.967 7.923 4.461 1.06.2 2.129-.109 2.87-.85l.651-.651a2 2 0 0 0 0-2.829zM13 6.991a3.944 3.944 0 0 1 2.854 1.155m2.828-2.828A8.012 8.012 0 0 0 13 2.964M17.009 11a3.944 3.944 0 0 0-1.155-2.854m2.828-2.828A8.012 8.012 0 0 1 21.036 11" stroke="#848E9F" stroke-width="1.5" stroke-linecap="round" stroke-linejoin="round"/></svg>
